X: 608
T: Dü-Şems
C: Fârâbî
O: Turkey
F: http://compmusic.upf.edu/node/140
N: rast--pesrev--cifteduyek--du-sems--farabi
N: makam= rast
N: form= pesrev
N: usul= cifteduyek = 16/4
M: 16/4
L: 1/16
K: C _1/4B ^f  
Q: 1/4=78
%%MIDI tuningsystem comma53
G2 A2 G4 A2 B2 A4  | B2 c2 B4 c2 d2 c4  | \
w:   |   | 
d8-d2 z2 e2 c2  | d12 z4  | e2 d2 c2 B2 c6 z2  | 
w:   |   |   | 
d2 c2 B2 A2 B6 z2  | c2 B2 A2 G2 A6 z2  | \
w:   |   | 
B2 A2 G2 F2 G6 z2  | B2 A2 B4 c2 B2 c4  | 
w:   |   | 
d2 c2 B2 c2 d6 z2  | e4 =f2 e2 d4 {f}e2 d2  | \
w:   |   | 
c4 {e}d2 c2 B2 c2 B2 A2  | G2 F2 G2 A2 G2 A2 G2 F2  | 
w:   |   | 
G3 F E8 D4  | E2 F2 E4 F2 G2 F4  | B2 A2 G2 F2 G6 z2  | \
w:   |   |   | 
G2 F2 G2 A2 G4 A4  | 
w:   | 
{B}A4 B4 G6 z2  | A2 B2 A4 B2 c2 B4  | \
w:   |   | 
c2 d2 c4 d6 z2  | g2 f2 g2 a2 g6 f2  | 
w:   |   | 
f2 e2 f2 g2 f6 e2  | e2 d2 e2 =f2 e6 d2  | \
w:   |   | 
d2 c2 d2 e2 d6 c2  | c2 B2 c2 d2 c6 B2  | 
w:   |   | 
B2 A2 B2 c2 B6 A2  | A2 G2 A2 B2 A6 G2  | \
w:   |   | 
G2 F2 G2 A2 G6 F2  | E14 z2  | D2 E2 F2 G2 F2 G2 A2 B2  | 
w:   |   |   | 
G2 c2 B2 A2 G2 A2 G2 F2  | E2 F2 G4 e4 d2 c2  | \
w:   |   | 
B4 A4 G6 c2  | B4 A4 G4 F4  | 
w:   |   | 
G12 F4  | G14 z2  | g4 f4 g6 z2  | e2 f2 e4 f2 g2 f4  | \
w:   |   |  ^  |   | 
g2 a2 g4 a6 c'2  | b4 g4 g4 f4  | 
w:   |   | 
e8 d4 e4  | f2 g2 f2 ^e2 f6 z2  | g2 a2 g2 f2 g6 z2  | \
w:   |   |   | 
a2 b2 a2 g2 a6 z2  | 
w:   | 
g2 a2 g4 a2 b2 a4  | b2 c'2 b4 c'2 d'2 c'4  | \
w:   |   | 
d'2 e'2 d'2 c'2 b4 a2 b2  | c'4 b2 a2 g6 z2  | 
w:   |   | 
g4 f4 g6 z2  | e2 f2 e4 f2 g2 f4  | g2 a2 g4 a6 c'2  | \
w:  ^  |   |   | 
b4 g4 g4 f4  | e8 d4 e4  | 
w:   |   | 
f2 g2 f2 ^e2 f6 z2  | g2 a2 g2 f2 g6 z2  | \
w:   |   | 
a2 b2 a2 g2 a6 z2  | g2 a2 g4 a2 b2 a4  | 
w:   |   | 
b2 c'2 b4 c'2 d'2 c'4  | d'2 e'2 d'2 c'2 b4 a2 b2  | \
w:   |   | 
c'4 b2 a2 g6 z2  | c'12 a4  | b12 g4  | 
w:   |   |   | 
a12 f4  | g12 e4  | f12 d4  | e6 f2 g4 a4  | \
w:   |   |   |   | 
f12 g4  | g14 z2  | d'4 c'2 d'2 e'4 d'2 c'2  | \
w:   |   |   | 
c'4 b2 c'2 d'4 c'2 b2  | 
w:   | 
b4 a2 b2 c'4 b2 a2  | a4 g2 a2 b4 a2 g2  | \
w:   |   | 
c'6 b2 a6 g2  | f6 e2 d6 z2  | d2 e2 f2 g2 e2 f2 d2 e2  | 
w:   |   |   | 
c2 d2 B2 c2 A2 B2 G4  | G2 F2 E8 F4  | \
w:   |   | 
G8 A8  | A2 c2 B2 A2 G2 A2 G2 F2  | 
w:   |   | 
E2 F2 G4 e4 d2 c2  | B4 A4 G6 c2  | B4 A4 G4 F4  | \
w:   |   |   | 
G12 F4  | G16  | |


